assets/components_previews/typography/dark/code.svg

<svg xmlns="http://www.w3.org/2000/svg" width="320" height="232" fill="none" viewBox="0 0 320 232"><g filter="url(#a)"><rect width="160" height="62" x="80" y="85" fill="#0E0F10" rx="12"/><g clip-path="url(#b)"><path fill="#5F43D0" fill-rule="evenodd" d="M120.701 105.194c-1.442-.194-3.289-.194-5.64-.194h-.122c-2.351 0-4.198 0-5.64.194-1.477.198-2.649.614-3.57 1.535s-1.337 2.093-1.535 3.57c-.194 1.442-.194 3.289-.194 5.64v.122c0 2.351 0 4.198.194 5.64.198 1.477.614 2.649 1.535 3.57s2.093 1.337 3.57 1.535c1.442.194 3.289.194 5.64.194h.122c2.351 0 4.198 0 5.64-.194 1.477-.198 2.649-.614 3.57-1.535s1.337-2.093 1.535-3.57c.194-1.442.194-3.289.194-5.64v-.122c0-2.351 0-4.198-.194-5.64-.198-1.477-.614-2.649-1.535-3.57s-2.093-1.337-3.57-1.535m-2.109 9.473a1.074 1.074 0 0 1 1.401-1.626l1.317 1.134.039.035c.242.208.498.429.686.641.212.239.477.619.477 1.149s-.265.91-.477 1.149a7 7 0 0 1-.686.641l-.039.035-1.317 1.134a1.072 1.072 0 1 1-1.401-1.625l1.316-1.135.23-.199-.23-.199zm-7.072-1.514a1.074 1.074 0 0 1-.112 1.514l-1.316 1.134-.23.199.23.199 1.316 1.135a1.072 1.072 0 1 1-1.401 1.625l-1.317-1.134-.039-.035a7 7 0 0 1-.686-.641c-.212-.239-.477-.619-.477-1.149s.265-.91.477-1.149c.188-.212.444-.433.686-.641l.039-.035 1.317-1.134a1.07 1.07 0 0 1 1.513.112m5.572-.033a1.073 1.073 0 0 0-2.037-.679l-2.146 6.439a1.074 1.074 0 0 0 2.036.679z" clip-rule="evenodd"/></g><rect width="74" height="10" x="142" y="111" fill="#2F1C78" rx="5"/></g><defs><clipPath id="b"><path fill="#fff" d="M104 105h22v22h-22z"/></clipPath><filter id="a" width="200" height="102" x="60" y="77" color-interpolation-filters="sRGB" filterUnits="userSpaceOnUse"><feFlood flood-opacity="0" result="BackgroundImageFix"/><feColorMatrix in="SourceAlpha" result="hardAlpha" values="0 0 0 0 0 0 0 0 0 0 0 0 0 0 0 0 0 0 127 0"/><feOffset dy="12"/><feGaussianBlur stdDeviation="10"/><feComposite in2="hardAlpha" operator="out"/><feColorMatrix values="0 0 0 0 0 0 0 0 0 0 0 0 0 0 0 0 0 0 0.03 0"/><feBlend in2="BackgroundImageFix" result="effect1_dropShadow_10186_36986"/><feColorMatrix in="SourceAlpha" result="hardAlpha" values="0 0 0 0 0 0 0 0 0 0 0 0 0 0 0 0 0 0 127 0"/><feOffset dy="2"/><feGaussianBlur stdDeviation="3"/><feComposite in2="hardAlpha" operator="out"/><feColorMatrix values="0 0 0 0 0 0 0 0 0 0 0 0 0 0 0 0 0 0 0.05 0"/><feBlend in2="effect1_dropShadow_10186_36986" result="effect2_dropShadow_10186_36986"/><feBlend in="SourceGraphic" in2="effect2_dropShadow_10186_36986" result="shape"/></filter></defs></svg>

<svg width="320" height="232" viewBox="0 0 320 232" fill="none" xmlns="http://www.w3.org/2000/svg">
<g filter="url(#filter0_dd_10186_36986)">
<rect x="80" y="85" width="160" height="62" rx="12" fill="#0E0F10"/>
<g clip-path="url(#clip0_10186_36986)">
<path fill-rule="evenodd" clip-rule="evenodd" d="M120.701 105.194C119.259 105 117.412 105 115.061 105H114.939C112.588 105 110.741 105 109.299 105.194C107.822 105.392 106.65 105.808 105.729 106.729C104.808 107.65 104.392 108.822 104.194 110.299C104 111.741 104 113.588 104 115.939V116.061C104 118.412 104 120.259 104.194 121.701C104.392 123.178 104.808 124.35 105.729 125.271C106.65 126.192 107.822 126.608 109.299 126.806C110.741 127 112.588 127 114.939 127H115.061C117.412 127 119.259 127 120.701 126.806C122.178 126.608 123.35 126.192 124.271 125.271C125.192 124.35 125.608 123.178 125.806 121.701C126 120.259 126 118.412 126 116.061V115.939C126 113.588 126 111.741 125.806 110.299C125.608 108.822 125.192 107.65 124.271 106.729C123.35 105.808 122.178 105.392 120.701 105.194ZM118.592 114.667C118.143 114.28 118.093 113.602 118.48 113.153C118.867 112.704 119.544 112.654 119.993 113.041L121.31 114.175L121.349 114.21C121.591 114.418 121.847 114.639 122.035 114.851C122.247 115.09 122.512 115.47 122.512 116C122.512 116.53 122.247 116.91 122.035 117.149C121.847 117.361 121.591 117.582 121.349 117.79L121.31 117.825L119.993 118.959C119.544 119.346 118.867 119.296 118.48 118.847C118.093 118.398 118.143 117.72 118.592 117.334L119.908 116.199C119.996 116.124 120.071 116.058 120.138 116C120.071 115.942 119.996 115.877 119.908 115.801L118.592 114.667ZM111.52 113.153C111.907 113.602 111.857 114.28 111.408 114.667L110.092 115.801C110.004 115.877 109.929 115.942 109.862 116C109.929 116.058 110.004 116.124 110.092 116.199L111.408 117.334C111.857 117.72 111.907 118.398 111.52 118.847C111.133 119.296 110.456 119.346 110.007 118.959L108.69 117.825L108.651 117.79C108.409 117.582 108.153 117.361 107.965 117.149C107.753 116.91 107.488 116.53 107.488 116C107.488 115.47 107.753 115.09 107.965 114.851C108.153 114.639 108.409 114.418 108.651 114.21L108.69 114.175L110.007 113.041C110.456 112.654 111.133 112.704 111.52 113.153ZM117.092 113.12C117.279 112.558 116.975 111.95 116.413 111.763C115.851 111.575 115.243 111.879 115.055 112.441L112.909 118.88C112.722 119.443 113.025 120.05 113.588 120.238C114.15 120.425 114.758 120.121 114.945 119.559L117.092 113.12Z" fill="#5F43D0"/>
</g>
<rect x="142" y="111" width="74" height="10" rx="5" fill="#2F1C78"/>
</g>
<defs>
<filter id="filter0_dd_10186_36986" x="60" y="77" width="200" height="102" filterUnits="userSpaceOnUse" color-interpolation-filters="sRGB">
<feFlood flood-opacity="0" result="BackgroundImageFix"/>
<feColorMatrix in="SourceAlpha" type="matrix" values="0 0 0 0 0 0 0 0 0 0 0 0 0 0 0 0 0 0 127 0" result="hardAlpha"/>
<feOffset dy="12"/>
<feGaussianBlur stdDeviation="10"/>
<feComposite in2="hardAlpha" operator="out"/>
<feColorMatrix type="matrix" values="0 0 0 0 0 0 0 0 0 0 0 0 0 0 0 0 0 0 0.03 0"/>
<feBlend mode="normal" in2="BackgroundImageFix" result="effect1_dropShadow_10186_36986"/>
<feColorMatrix in="SourceAlpha" type="matrix" values="0 0 0 0 0 0 0 0 0 0 0 0 0 0 0 0 0 0 127 0" result="hardAlpha"/>
<feOffset dy="2"/>
<feGaussianBlur stdDeviation="3"/>
<feComposite in2="hardAlpha" operator="out"/>
<feColorMatrix type="matrix" values="0 0 0 0 0 0 0 0 0 0 0 0 0 0 0 0 0 0 0.05 0"/>
<feBlend mode="normal" in2="effect1_dropShadow_10186_36986" result="effect2_dropShadow_10186_36986"/>
<feBlend mode="normal" in="SourceGraphic" in2="effect2_dropShadow_10186_36986" result="shape"/>
</filter>
<clipPath id="clip0_10186_36986">
<rect width="22" height="22" fill="white" transform="translate(104 105)"/>
</clipPath>
</defs>
</svg>
